icons/opera-line.svg

<svg xmlns="http://www.w3.org/2000/svg" width="24" height="24" fill="none"><g clip-path="url(#a)"><g><path fill="#121212" d="M14.766 19.51C16.3024 18.9442 17.6283 17.9209 18.5648 16.578C19.5014 15.2351 20.0035 13.6372 20.0035 12C20.0035 10.3628 19.5014 8.76493 18.5648 7.42202C17.6283 6.07911 16.3024 5.05576 14.766 4.49C16.71 5.977 18 8.935 18 12C18 15.065 16.711 18.024 14.766 19.51ZM9.234 4.49C7.69763 5.05576 6.37173 6.07911 5.43518 7.42202C4.49863 8.76493 3.99649 10.3628 3.99649 12C3.99649 13.6372 4.49863 15.2351 5.43518 16.578C6.37173 17.9209 7.69763 18.9442 9.234 19.51C7.29 18.023 6 15.065 6 12C6 8.935 7.289 5.976 9.234 4.49ZM12 22C6.477 22 2 17.523 2 12C2 6.477 6.477 2 12 2C17.523 2 22 6.477 22 12C22 17.523 17.523 22 12 22ZM12 18.5C14 18.5 16 15.467 16 12C16 8.533 14 5.5 12 5.5C10 5.5 8 8.533 8 12C8 15.467 10 18.5 12 18.5Z"/></g></g><defs><clipPath id="a"><rect width="24" height="24" fill="white"/></clipPath></defs></svg>

<svg width="24" height="24" fill="none" xmlns="http://www.w3.org/2000/svg"><g clip-path="url(#a)"><path d="M14.766 19.51a8.003 8.003 0 0 0 0-15.02C16.71 5.977 18 8.935 18 12c0 3.065-1.289 6.024-3.234 7.51ZM9.234 4.49a8.003 8.003 0 0 0 0 15.02C7.29 18.023 6 15.065 6 12c0-3.065 1.289-6.024 3.234-7.51ZM12 22C6.477 22 2 17.523 2 12S6.477 2 12 2s10 4.477 10 10-4.477 10-10 10Zm0-3.5c2 0 4-3.033 4-6.5s-2-6.5-4-6.5S8 8.533 8 12s2 6.5 4 6.5Z" /></g><defs><clipPath id="a"><path fill="#fff" d="M0 0h24v24H0z"/></clipPath></defs></svg>
